X:1
T:Martin Wynne's #3
R:reel
C:Martin Wynne
D:Dervish: Midsummer's Night
Z:id:hn-reel-808
M:C|
K:G
|:dged B2Ad|BGAG EA~A2|B2dB cdeg|fgaf gdeg|
dged B2Ad|BGAG EA~A2|B2dB cdeg|1 fdcA ~G3z:|2 fgaf ~g3f|]
|:g2af gfeB|dged ~B3c|dggf gfeB|dega bgaf|
gbaf gfeB|dged ~B3c|dggf gfed|1 fgaf ~g3d:|2 fgaf g3e|]
</abc>
